!!!OTL: Der heimkehrende Soldat Es klappert die Muehle am rauschenden Bach, klipp, klapp!
!!!ARE: Europa, Mitteleuropa, Deutschland
!!!YOR: 5, S. 160
!!    1824 gedruckt (ca.)
!!!SCT: Q1103F
!!!YEM: Copyright 1995, estate of Helmut Schaffrath.
**kern
*ICvox
*Ivox
*M6/8
*k[f#]
*G:
{8d
=1
8d
8g
8g
8g
8a
8b
=2
8b
8a
8a
4a
8dd
=3
8b
2r}
{8d
=4
8d
8g
8g
8g
8a
8b
=5
8b
8a
8a
4a
8dd
=6
8b
2r}
{16g
16b
=7
8.dd
16dd
8dd
8dd
8ee
8dd
=8
8dd
8cc
8cc
4cc}
{8cc
=9
8.b
16b
8b
8dd
8cc
8b
=10
8b
8a
8a
4a}
{8dd
=11
8b
8r
8b
8a
8r
8a
=12
8g
2r}
==
!!!AGN: ???
!! Melodievergleich zu Q0103A, anderes Lied. Text wurde auf bekannte
!!    Melodie geschrieben. Anhaengsel. Letzte Zeile = Refrain.
!!!ONB: ESAC (Essen Associative Code) Database: BALLADE
!!!AMT: compound duple
!!!AIN: vox
!!!EED: Helmut Schaffrath
!!!EEV: 1.0
*-
